X:79
T:Gi'e me A Lass wi' a Lump o' Land
M:6/8
R:Jig
K:G
A>Bd "tr"e2A| "tr"f2A "tr"e2A| \
A>Bd "tr"e2A| gfe d<BG| \
A>Bd "tr"e2A| "tr"f2A "tr"e2f| 
g>ag g>fe| dBG:: \
g>ag "tr"f2e| f2g "tr"a3| \
g>ag gfe| d2g d<BG|
g>ag gfe| "tr"f2g "tr"a(ga)| b>ag g>fe| (d<g)e d>BG:|
